assets/img/braze_icons/medical-circle.svg

<svg fill="none" height="24" viewBox="0 0 24 24" width="24" xmlns="http://www.w3.org/2000/svg"><path clip-rule="evenodd" d="m12 1c-6.07513 0-11 4.92487-11 11 0 6.0751 4.92487 11 11 11 6.0751 0 11-4.9249 11-11 0-6.07513-4.9249-11-11-11zm1.7788 5.773c.0545.10696.0545.24697.0545.527v2.06667c0 .28002 0 .42004.0545.52699.048.09408.1245.17054.2185.21854.107.0545.247.0545.527.0545h2.0667c.28 0 .42 0 .527.0545.0941.0479.1706.1244.2185.2185.0545.1069.0545.2469.0545.527v2.0666c0 .2801 0 .4201-.0545.527-.0479.0941-.1244.1706-.2185.2185-.107.0545-.247.0545-.527.0545h-2.0667c-.28 0-.42 0-.527.0545-.094.048-.1705.1245-.2185.2185-.0545.107-.0545.247-.0545.527v2.0667c0 .28 0 .42-.0545.527-.0479.0941-.1244.1706-.2185.2185-.1069.0545-.2469.0545-.527.0545h-2.0666c-.2801 0-.4201 0-.527-.0545-.0941-.0479-.1706-.1244-.2185-.2185-.0545-.107-.0545-.247-.0545-.527v-2.0667c0-.28 0-.42-.0545-.527-.048-.094-.12446-.1705-.21854-.2185-.10695-.0545-.24697-.0545-.52699-.0545h-2.06667c-.28003 0-.42004 0-.527-.0545-.09408-.0479-.17057-.1244-.2185-.2185-.0545-.1069-.0545-.2469-.0545-.527v-2.0666c0-.2801 0-.4201.0545-.527.04793-.0941.12442-.1706.2185-.2185.10696-.0545.24697-.0545.527-.0545h2.06667c.28002 0 .42004 0 .52699-.0545.09408-.048.17054-.12446.21854-.21854.0545-.10695.0545-.24697.0545-.52699v-2.06667c0-.28003 0-.42004.0545-.527.0479-.09408.1244-.17057.2185-.2185.1069-.0545.2469-.0545.527-.0545h2.0666c.2801 0 .4201 0 .527.0545.0941.04793.1706.12442.2185.2185z" fill="#801ed7" fill-rule="evenodd"/></svg>

<svg width="24" height="24" viewBox="0 0 24 24" fill="none" xmlns="http://www.w3.org/2000/svg">
<path fill-rule="evenodd" clip-rule="evenodd" d="M12 1C5.92487 1 1 5.92487 1 12C1 18.0751 5.92487 23 12 23C18.0751 23 23 18.0751 23 12C23 5.92487 18.0751 1 12 1ZM13.7788 6.773C13.8333 6.87996 13.8333 7.01997 13.8333 7.3V9.36667C13.8333 9.64669 13.8333 9.78671 13.8878 9.89366C13.9358 9.98774 14.0123 10.0642 14.1063 10.1122C14.2133 10.1667 14.3533 10.1667 14.6333 10.1667H16.7C16.98 10.1667 17.12 10.1667 17.227 10.2212C17.3211 10.2691 17.3976 10.3456 17.4455 10.4397C17.5 10.5466 17.5 10.6866 17.5 10.9667V13.0333C17.5 13.3134 17.5 13.4534 17.4455 13.5603C17.3976 13.6544 17.3211 13.7309 17.227 13.7788C17.12 13.8333 16.98 13.8333 16.7 13.8333H14.6333C14.3533 13.8333 14.2133 13.8333 14.1063 13.8878C14.0123 13.9358 13.9358 14.0123 13.8878 14.1063C13.8333 14.2133 13.8333 14.3533 13.8333 14.6333V16.7C13.8333 16.98 13.8333 17.12 13.7788 17.227C13.7309 17.3211 13.6544 17.3976 13.5603 17.4455C13.4534 17.5 13.3134 17.5 13.0333 17.5H10.9667C10.6866 17.5 10.5466 17.5 10.4397 17.4455C10.3456 17.3976 10.2691 17.3211 10.2212 17.227C10.1667 17.12 10.1667 16.98 10.1667 16.7V14.6333C10.1667 14.3533 10.1667 14.2133 10.1122 14.1063C10.0642 14.0123 9.98774 13.9358 9.89366 13.8878C9.78671 13.8333 9.64669 13.8333 9.36667 13.8333H7.3C7.01997 13.8333 6.87996 13.8333 6.773 13.7788C6.67892 13.7309 6.60243 13.6544 6.5545 13.5603C6.5 13.4534 6.5 13.3134 6.5 13.0333V10.9667C6.5 10.6866 6.5 10.5466 6.5545 10.4397C6.60243 10.3456 6.67892 10.2691 6.773 10.2212C6.87996 10.1667 7.01997 10.1667 7.3 10.1667H9.36667C9.64669 10.1667 9.78671 10.1667 9.89366 10.1122C9.98774 10.0642 10.0642 9.98774 10.1122 9.89366C10.1667 9.78671 10.1667 9.64669 10.1667 9.36667V7.3C10.1667 7.01997 10.1667 6.87996 10.2212 6.773C10.2691 6.67892 10.3456 6.60243 10.4397 6.5545C10.5466 6.5 10.6866 6.5 10.9667 6.5H13.0333C13.3134 6.5 13.4534 6.5 13.5603 6.5545C13.6544 6.60243 13.7309 6.67892 13.7788 6.773Z" fill="#801ED7"/>
</svg>
